src/web/images/zadark-lockup.svg

<svg width="256" height="64" viewBox="0 0 256 64" fill="none" xmlns="http://www.w3.org/2000/svg">
<path d="M48.4065 41.7391C48.4065 44.3478 47.8021 48.029 46.5935 52.7826C45.3848 57.4783 44.5086 60.058 43.9647 60.5217C43.7834 60.6957 43.3603 60.7826 42.6956 60.7826C41.3661 60.7826 39.2811 60.4928 36.4408 59.913L35.0811 59.5652C34.5976 59.5072 33.3588 59.4783 31.3645 59.4783L2.99141 60.2609C2.38708 60.2609 1.72233 59.4493 0.997137 57.8261C0.332379 56.2029 0 54.8986 0 53.913C0 52.9275 0.0302163 52.3188 0.0906488 52.087C1.05757 50.1159 4.04898 45.8551 9.06488 39.3043C14.1412 32.7536 18.9154 26.6087 23.3874 20.8696C27.8594 15.0725 30.0954 11.8551 30.0954 11.2174C30.0954 10.8696 27.8292 10.6956 23.2967 10.6956C18.8247 10.6956 15.6822 11.1304 13.8693 12C13.0232 12.2899 11.3915 14.4638 8.97423 18.5217L7.7958 20.4348C6.94974 20.4348 5.74109 20 4.16984 19.1304C2.65903 18.2609 1.90362 17.5942 1.90362 17.1304C1.90362 15.7391 2.20579 13.6522 2.81011 10.8696C3.47487 8.08695 4.16984 5.5942 4.89503 3.3913C5.68066 1.1884 6.19433 0.0869554 6.43606 0.0869554C8.12818 0.0869554 9.8505 0.463767 11.603 1.21739C13.3556 1.91304 14.2923 2.26087 14.4132 2.26087C19.8521 1.50725 25.9256 1.13044 32.6336 1.13044C39.402 1.13044 43.3301 1.30435 44.4179 1.65217C44.9014 2.05797 45.4453 2.95652 46.0496 4.34783C46.7143 5.73913 47.0467 7.30435 47.0467 9.04348C47.0467 9.21739 46.805 9.53623 46.3215 10C42.5747 14.058 36.7732 21.3913 28.917 32C21.1212 42.6087 17.2233 48.5507 17.2233 49.8261C17.2233 50.2319 19.7312 50.4348 24.7471 50.4348C29.8235 50.4348 33.1472 49.971 34.7185 49.0435C35.6854 48.2319 37.0149 46.5797 38.707 44.087C40.3991 41.5942 41.5171 39.5942 42.061 38.087C42.061 37.971 42.3028 37.913 42.7862 37.913C43.3301 37.913 44.3877 38.3768 45.9589 39.3043C47.5906 40.2319 48.4065 41.0435 48.4065 41.7391Z" fill="url(#paint0_linear_1028_606)"/>
<path d="M87.1333 39.6522C87.1333 46.8986 87.224 51.1304 87.4053 52.3478C87.8887 55.5362 88.9161 57.8261 90.4873 59.2174C90.4873 59.8551 89.2787 60.8116 86.8614 62.087C84.5045 63.3623 82.3592 64 80.4253 64C79.8814 64 79.3073 63.2174 78.703 61.6522C78.0987 60.1449 77.7361 59.0145 77.6152 58.2609C77.5548 57.5072 77.4943 57.1304 77.4339 57.1304L77.162 57.3044C73.959 59.7391 70.2122 60.9565 65.9215 60.9565C61.6308 60.9565 58.307 59.971 55.9501 58C53.6537 55.971 52.5055 53.3333 52.5055 50.087C52.5055 46.8406 53.2307 44.1159 54.6811 41.913C56.1919 39.6522 57.9444 37.942 59.9387 36.7826C61.933 35.6232 64.1387 34.6957 66.556 34C70.2424 32.8406 73.1432 32.2609 75.2583 32.2609L75.4396 32.1739C75.4396 29.3333 71.6928 27.913 64.1992 27.913C61.238 27.913 59.0322 28.029 57.5818 28.2609H57.4912C57.4912 27.1014 57.8538 25.6522 58.579 23.913C59.3646 22.1739 59.9991 21.0435 60.4826 20.5217C61.0265 20 63.202 19.7391 67.0093 19.7391C73.8986 19.7391 78.9749 21.0145 82.2383 23.5652C85.5016 26.058 87.1333 29.942 87.1333 35.2174V39.6522ZM77.0713 45.2174V41.913C77.0713 40.6377 77.0411 40 76.9807 40C72.9317 40 69.4266 41.0145 66.4654 43.0435C64.592 44.3188 63.6553 45.913 63.6553 47.8261C63.6553 49.0435 64.1085 50.058 65.015 50.8696C65.9215 51.6812 67.2812 52.087 69.0942 52.087C70.9676 52.087 72.7504 51.5652 74.4425 50.5217C76.195 49.4783 77.0713 47.7101 77.0713 45.2174Z" fill="url(#paint1_linear_1028_606)"/>
<path d="M127.471 44.1739C129.223 42.4928 130.704 40.2319 131.912 37.3913C133.121 34.4928 133.725 31.4203 133.725 28.1739C133.725 24.9275 133.121 22.1739 131.912 19.913C130.704 17.5942 129.284 15.8551 127.652 14.6956C126.02 13.4783 124.147 12.4928 122.032 11.7391C118.768 10.5797 115.656 10 112.695 10C111.909 10 111.516 10.029 111.516 10.087C111.093 10.4928 110.882 17.3333 110.882 30.6087C110.882 43.8841 111.093 50.7246 111.516 51.1304C111.637 51.2464 112.06 51.3043 112.786 51.3043C113.571 51.3043 114.719 51.1014 116.23 50.6957C117.801 50.2899 119.614 49.5362 121.669 48.4348C123.784 47.2754 125.718 45.8551 127.471 44.1739ZM99.3695 45.8261L99.6414 11.4783C98.9767 10.4928 98.1306 8.75362 97.1033 6.26087C96.0759 3.71014 95.5622 2.2029 95.5622 1.73913C95.5622 1.21739 95.5925 0.927535 95.6529 0.869564C96.2572 0.289855 99.8227 0 106.349 0C118.919 0 128.619 2.52174 135.448 7.56522C142.337 12.6087 145.782 19.3623 145.782 27.8261C145.782 32 145.087 35.8551 143.697 39.3913C142.307 42.8696 140.433 45.8261 138.077 48.2609C135.78 50.6377 133.181 52.7536 130.281 54.6087C127.44 56.4058 124.419 57.8261 121.216 58.8696C114.931 60.8406 109.22 61.8261 104.083 61.8261C101.666 61.8261 100.276 61.6522 99.9134 61.3044C99.5508 60.9565 99.3695 55.7971 99.3695 45.8261Z" fill="url(#paint2_linear_1028_606)"/>
<path d="M182.651 39.6522C182.651 46.8986 182.742 51.1304 182.923 52.3478C183.406 55.5362 184.434 57.8261 186.005 59.2174C186.005 59.8551 184.796 60.8116 182.379 62.087C180.022 63.3623 177.877 64 175.943 64C175.399 64 174.825 63.2174 174.221 61.6522C173.616 60.1449 173.254 59.0145 173.133 58.2609C173.072 57.5072 173.012 57.1304 172.952 57.1304L172.68 57.3044C169.477 59.7391 165.73 60.9565 161.439 60.9565C157.148 60.9565 153.825 59.971 151.468 58C149.171 55.971 148.023 53.3333 148.023 50.087C148.023 46.8406 148.748 44.1159 150.199 41.913C151.709 39.6522 153.462 37.942 155.456 36.7826C157.451 35.6232 159.656 34.6957 162.074 34C165.76 32.8406 168.661 32.2609 170.776 32.2609L170.957 32.1739C170.957 29.3333 167.21 27.913 159.717 27.913C156.756 27.913 154.55 28.029 153.099 28.2609H153.009C153.009 27.1014 153.371 25.6522 154.097 23.913C154.882 22.1739 155.517 21.0435 156 20.5217C156.544 20 158.72 19.7391 162.527 19.7391C169.416 19.7391 174.493 21.0145 177.756 23.5652C181.019 26.058 182.651 29.942 182.651 35.2174V39.6522ZM172.589 45.2174V41.913C172.589 40.6377 172.559 40 172.498 40C168.449 40 164.944 41.0145 161.983 43.0435C160.11 44.3188 159.173 45.913 159.173 47.8261C159.173 49.0435 159.626 50.058 160.533 50.8696C161.439 51.6812 162.799 52.087 164.612 52.087C166.485 52.087 168.268 51.5652 169.96 50.5217C171.713 49.4783 172.589 47.7101 172.589 45.2174Z" fill="url(#paint3_linear_1028_606)"/>
<path d="M192.077 47.3043L191.896 27.5652C191.896 24.1449 192.017 22.3188 192.258 22.087C192.923 21.4493 194.071 20.8985 195.703 20.4348C197.335 19.913 198.845 19.6522 200.235 19.6522C201.686 19.6522 202.411 19.7971 202.411 20.087C202.23 21.6522 202.139 23.4493 202.139 25.4783C202.139 27.4493 202.199 28.4348 202.32 28.4348C202.441 28.4348 202.562 28.3768 202.683 28.2609C202.804 28.087 202.985 27.8551 203.227 27.5652C203.529 27.2174 204.103 26.6377 204.949 25.8261C205.856 25.0145 206.823 24.3188 207.85 23.7391C210.449 22.1159 213.228 21.3043 216.19 21.3043C216.673 22.058 216.915 23.2174 216.915 24.7826C216.915 28.087 216.492 30.4348 215.646 31.8261L215.283 32.5217L214.105 32.3478C209.754 32.3478 206.339 34.058 203.861 37.4783C202.894 38.8696 202.411 39.913 202.411 40.6087V48.2609C202.411 55.2174 202.32 58.7826 202.139 58.9565C200.447 60.5217 197.123 61.3044 192.168 61.3044C191.684 61.3044 191.442 61.2174 191.442 61.0435C191.866 58.7826 192.077 54.2029 192.077 47.3043Z" fill="url(#paint4_linear_1028_606)"/>
<path d="M222.188 42.1739L221.916 12C221.916 6.37681 222.067 3.42029 222.369 3.13044C223.094 2.43478 224.273 1.76812 225.905 1.13044C227.536 0.492752 229.108 0.173911 230.618 0.173911C232.129 0.173911 232.885 0.289853 232.885 0.521738C232.824 0.811592 232.673 4.86956 232.431 12.6956C232.25 20.5217 232.159 25.5942 232.159 27.913C232.159 30.1739 232.19 31.4783 232.25 31.8261C232.31 32.1159 232.431 32.2609 232.613 32.2609L232.794 32.1739C234.728 30.2029 237.598 27.7391 241.406 24.7826C245.213 21.8261 247.66 20.3478 248.748 20.3478C252.314 22.4928 254.096 24.2319 254.096 25.5652C252.283 26.6667 250.138 28.1739 247.66 30.087C245.183 32 243.823 33.2174 243.581 33.7391C243.581 34.2029 244.095 35.8841 245.122 38.7826C246.21 41.6232 247.781 44.9855 249.836 48.8696C251.891 52.7536 253.945 55.6812 256 57.6522C256 58.3478 254.67 59.2174 252.011 60.2609C249.352 61.3043 247.056 61.8261 245.122 61.8261C244.397 61.8261 242.977 59.1015 240.862 53.6522C238.807 48.2029 237.387 43.971 236.601 40.9565L236.42 40.6957C236.178 40.6957 235.423 41.5362 234.154 43.2174C232.885 44.8985 232.25 46.029 232.25 46.6087L232.522 55.4783C232.522 57.5652 232.401 58.7246 232.159 58.9565C231.374 59.7101 230.014 60.2899 228.08 60.6957C226.146 61.1014 224.545 61.3044 223.276 61.3044C222.067 61.3044 221.463 61.2174 221.463 61.0435C221.946 58.4928 222.188 52.2029 222.188 42.1739Z" fill="url(#paint5_linear_1028_606)"/>
<defs>
<linearGradient id="paint0_linear_1028_606" x1="128" y1="0" x2="128" y2="64" gradientUnits="userSpaceOnUse">
<stop stop-color="#3989FF"/>
<stop offset="1" stop-color="#0068FF"/>
</linearGradient>
<linearGradient id="paint1_linear_1028_606" x1="128" y1="0" x2="128" y2="64" gradientUnits="userSpaceOnUse">
<stop stop-color="#3989FF"/>
<stop offset="1" stop-color="#0068FF"/>
</linearGradient>
<linearGradient id="paint2_linear_1028_606" x1="128" y1="0" x2="128" y2="64" gradientUnits="userSpaceOnUse">
<stop stop-color="#3989FF"/>
<stop offset="1" stop-color="#0068FF"/>
</linearGradient>
<linearGradient id="paint3_linear_1028_606" x1="128" y1="0" x2="128" y2="64" gradientUnits="userSpaceOnUse">
<stop stop-color="#3989FF"/>
<stop offset="1" stop-color="#0068FF"/>
</linearGradient>
<linearGradient id="paint4_linear_1028_606" x1="128" y1="0" x2="128" y2="64" gradientUnits="userSpaceOnUse">
<stop stop-color="#3989FF"/>
<stop offset="1" stop-color="#0068FF"/>
</linearGradient>
<linearGradient id="paint5_linear_1028_606" x1="128" y1="0" x2="128" y2="64" gradientUnits="userSpaceOnUse">
<stop stop-color="#3989FF"/>
<stop offset="1" stop-color="#0068FF"/>
</linearGradient>
</defs>
</svg>

<svg xmlns="http://www.w3.org/2000/svg" width="256" height="64" fill="none"><path fill="url(#a)" d="M48.407 41.74c0 2.608-.605 6.289-1.813 11.043-1.21 4.695-2.085 7.275-2.63 7.739-.18.174-.604.26-1.268.26-1.33 0-3.415-.29-6.255-.869l-1.36-.348c-.483-.058-1.722-.087-3.717-.087l-28.373.783c-.604 0-1.269-.812-1.994-2.435C.332 56.203 0 54.9 0 53.913c0-.985.03-1.594.09-1.826.968-1.971 3.959-6.232 8.975-12.783 5.076-6.55 9.85-12.695 14.322-18.434 4.472-5.798 6.708-9.015 6.708-9.653 0-.347-2.266-.521-6.798-.521-4.472 0-7.615.434-9.428 1.304-.846.29-2.477 2.464-4.895 6.522l-1.178 1.913c-.846 0-2.055-.435-3.626-1.305-1.511-.87-2.266-1.536-2.266-2 0-1.39.302-3.478.906-6.26.665-2.783 1.36-5.276 2.085-7.479.786-2.203 1.3-3.304 1.541-3.304 1.692 0 3.415.377 5.167 1.13 1.753.696 2.69 1.044 2.81 1.044 5.44-.754 11.513-1.13 18.22-1.13 6.769 0 10.697.173 11.785.521.483.406 1.027 1.305 1.632 2.696.664 1.391.997 2.956.997 4.695 0 .174-.242.493-.725.957-3.747 4.058-9.549 11.391-17.405 22-7.796 10.609-11.694 16.55-11.694 17.826 0 .406 2.508.609 7.524.609 5.076 0 8.4-.464 9.971-1.392.967-.811 2.297-2.463 3.989-4.956 1.692-2.493 2.81-4.493 3.354-6 0-.116.242-.174.725-.174.544 0 1.602.464 3.173 1.391 1.632.928 2.447 1.74 2.447 2.435Z"/><path fill="url(#b)" d="M87.133 39.652c0 7.247.091 11.478.272 12.696.484 3.188 1.511 5.478 3.082 6.87 0 .637-1.208 1.594-3.626 2.869C84.504 63.362 82.36 64 80.425 64c-.544 0-1.118-.783-1.722-2.348-.604-1.507-.967-2.638-1.088-3.391-.06-.754-.12-1.13-.181-1.13l-.272.173c-3.203 2.435-6.95 3.652-11.24 3.652-4.291 0-7.615-.985-9.972-2.956-2.296-2.029-3.445-4.667-3.445-7.913 0-3.246.726-5.971 2.176-8.174 1.51-2.26 3.263-3.971 5.258-5.13 1.994-1.16 4.2-2.087 6.617-2.783 3.686-1.16 6.587-1.74 8.702-1.74l.182-.086c0-2.84-3.747-4.261-11.24-4.261-2.962 0-5.168.116-6.618.348h-.09c0-1.16.362-2.609 1.087-4.348.786-1.74 1.42-2.87 1.904-3.391.544-.522 2.719-.783 6.526-.783 6.89 0 11.966 1.276 15.23 3.826 3.263 2.493 4.894 6.377 4.894 11.652v4.435Zm-10.062 5.565v-3.304c0-1.275-.03-1.913-.09-1.913-4.05 0-7.554 1.014-10.516 3.044-1.873 1.275-2.81 2.869-2.81 4.782 0 1.218.454 2.232 1.36 3.044.906.811 2.266 1.217 4.08 1.217 1.873 0 3.655-.522 5.347-1.565 1.753-1.044 2.63-2.812 2.63-5.305Z"/><path fill="url(#c)" d="M127.471 44.174c1.752-1.681 3.233-3.942 4.441-6.783 1.209-2.898 1.813-5.97 1.813-9.217 0-3.247-.604-6-1.813-8.261-1.208-2.319-2.628-4.058-4.26-5.217-1.632-1.218-3.505-2.203-5.62-2.957-3.264-1.16-6.376-1.739-9.337-1.739-.786 0-1.179.029-1.179.087-.423.406-.634 7.246-.634 20.522 0 13.275.211 20.116.634 20.521.121.116.544.174 1.27.174.785 0 1.933-.203 3.444-.608 1.571-.406 3.384-1.16 5.439-2.261a27.327 27.327 0 0 0 5.802-4.261Zm-28.102 1.652.272-34.348c-.664-.985-1.51-2.724-2.538-5.217-1.027-2.55-1.54-4.058-1.54-4.522 0-.522.03-.811.09-.87C96.257.29 99.823 0 106.349 0c12.57 0 22.27 2.522 29.099 7.565 6.889 5.044 10.334 11.797 10.334 20.261 0 4.174-.695 8.03-2.085 11.565-1.39 3.479-3.264 6.435-5.62 8.87a43.045 43.045 0 0 1-7.796 6.348 40.16 40.16 0 0 1-9.065 4.26c-6.285 1.972-11.996 2.957-17.133 2.957-2.417 0-3.807-.174-4.17-.522-.362-.348-.543-5.507-.543-15.478Z"/><path fill="url(#d)" d="M182.651 39.652c0 7.247.091 11.478.272 12.696.483 3.188 1.511 5.478 3.082 6.87 0 .637-1.209 1.594-3.626 2.869-2.357 1.275-4.502 1.913-6.436 1.913-.544 0-1.118-.783-1.722-2.348-.605-1.507-.967-2.638-1.088-3.391-.061-.754-.121-1.13-.181-1.13l-.272.173c-3.203 2.435-6.95 3.652-11.241 3.652-4.291 0-7.614-.985-9.971-2.956-2.297-2.029-3.445-4.667-3.445-7.913 0-3.246.725-5.971 2.176-8.174 1.51-2.26 3.263-3.971 5.257-5.13 1.995-1.16 4.2-2.087 6.618-2.783 3.686-1.16 6.587-1.74 8.702-1.74l.181-.086c0-2.84-3.747-4.261-11.24-4.261-2.961 0-5.167.116-6.618.348h-.09c0-1.16.362-2.609 1.088-4.348.785-1.74 1.42-2.87 1.903-3.391.544-.522 2.72-.783 6.527-.783 6.889 0 11.966 1.276 15.229 3.826 3.263 2.493 4.895 6.377 4.895 11.652v4.435Zm-10.062 5.565v-3.304c0-1.275-.03-1.913-.091-1.913-4.049 0-7.554 1.014-10.515 3.044-1.873 1.275-2.81 2.869-2.81 4.782 0 1.218.453 2.232 1.36 3.044.906.811 2.266 1.217 4.079 1.217 1.873 0 3.656-.522 5.348-1.565 1.753-1.044 2.629-2.812 2.629-5.305Z"/><path fill="url(#e)" d="m192.077 47.304-.181-19.739c0-3.42.121-5.246.362-5.478.665-.638 1.813-1.189 3.445-1.652 1.632-.522 3.142-.783 4.532-.783 1.451 0 2.176.145 2.176.435-.181 1.565-.272 3.362-.272 5.391 0 1.971.06 2.957.181 2.957s.242-.058.363-.174c.121-.174.302-.406.544-.696.302-.348.876-.927 1.722-1.739a16.527 16.527 0 0 1 2.901-2.087c2.599-1.623 5.378-2.435 8.34-2.435.483.754.725 1.913.725 3.479 0 3.304-.423 5.652-1.269 7.043l-.363.696-1.178-.174c-4.351 0-7.766 1.71-10.244 5.13-.967 1.392-1.45 2.435-1.45 3.13v7.653c0 6.956-.091 10.522-.272 10.695-1.692 1.566-5.016 2.348-9.971 2.348-.484 0-.726-.087-.726-.26.424-2.261.635-6.841.635-13.74Z"/><path fill="url(#f)" d="M222.188 42.174 221.916 12c0-5.623.151-8.58.453-8.87.725-.695 1.904-1.362 3.536-2 1.631-.637 3.203-.956 4.713-.956 1.511 0 2.267.116 2.267.348-.061.29-.212 4.348-.454 12.174-.181 7.826-.272 12.898-.272 15.217 0 2.26.031 3.565.091 3.913.06.29.181.435.363.435l.181-.087c1.934-1.971 4.804-4.435 8.612-7.391 3.807-2.957 6.254-4.435 7.342-4.435 3.566 2.145 5.348 3.884 5.348 5.217-1.813 1.102-3.958 2.609-6.436 4.522-2.477 1.913-3.837 3.13-4.079 3.652 0 .464.514 2.145 1.541 5.044 1.088 2.84 2.659 6.203 4.714 10.087 2.055 3.884 4.109 6.811 6.164 8.782 0 .696-1.33 1.565-3.989 2.609-2.659 1.043-4.955 1.565-6.889 1.565-.725 0-2.145-2.724-4.26-8.174-2.055-5.45-3.475-9.681-4.261-12.696l-.181-.26c-.242 0-.997.84-2.266 2.521-1.269 1.681-1.904 2.812-1.904 3.392l.272 8.87c0 2.086-.121 3.246-.363 3.477-.785.754-2.145 1.334-4.079 1.74-1.934.405-3.535.608-4.804.608-1.209 0-1.813-.087-1.813-.26.483-2.551.725-8.841.725-18.87Z"/><defs><linearGradient id="a" x1="128" x2="128" y1="0" y2="64" gradientUnits="userSpaceOnUse"><stop stop-color="#3989FF"/><stop offset="1" stop-color="#0068FF"/></linearGradient><linearGradient id="b" x1="128" x2="128" y1="0" y2="64" gradientUnits="userSpaceOnUse"><stop stop-color="#3989FF"/><stop offset="1" stop-color="#0068FF"/></linearGradient><linearGradient id="c" x1="128" x2="128" y1="0" y2="64" gradientUnits="userSpaceOnUse"><stop stop-color="#3989FF"/><stop offset="1" stop-color="#0068FF"/></linearGradient><linearGradient id="d" x1="128" x2="128" y1="0" y2="64" gradientUnits="userSpaceOnUse"><stop stop-color="#3989FF"/><stop offset="1" stop-color="#0068FF"/></linearGradient><linearGradient id="e" x1="128" x2="128" y1="0" y2="64" gradientUnits="userSpaceOnUse"><stop stop-color="#3989FF"/><stop offset="1" stop-color="#0068FF"/></linearGradient><linearGradient id="f" x1="128" x2="128" y1="0" y2="64" gradientUnits="userSpaceOnUse"><stop stop-color="#3989FF"/><stop offset="1" stop-color="#0068FF"/></linearGradient></defs></svg>
